X:168
T:Yellow Tinker, The
R:reel
H:There is also a G major version, #452. Related to #394, #788.
D:Matt Molloy: Heathery Breeze
Z:id:hn-reel-168
M:C|
K:Gmix
DG~G2 DEFA | DG~G2 DGBG | DG~G2 DEFA |1 cAFA c2BA :|2 cAFA c2Bc |: dG~G2 BGBd |
g2de ^fga^f |1 dG~G2 d2 (3Bcd | cAFA cABc :|2 g2de ^fga^f | g2ag ^fdcA || 
|: d2BG (3Bcd BG | (3Bcd BG c2Bc |1 d2BG Bcde | fdcA FABc :|2 d2de fefd | cAFA G2GF ||

